X: 1525
T: Bleking efter Carl Aron Hakberg
T: (SvL Västergötland 53)
S: efter Carl Aron Hakberg
O: Skövde, Västergötland
B: Svenska Låtar Västergötland
Z:Per Oldberg 2013
R: Bleking
L: 1/8
M: 3/4
K: D
D>F EC CA, | AE/A/ A/G/F/E/ DA, | D>F EC CA, | AE/A/ GFF2 :|:
[M:4/4] Fd/d/ Tdc/d/ e/d/c/d/ AA |[M:3/4] (c/d/)c/B/ (A/B/A/)G/ EE |
[M:4/4] Fd/d/ Tdc/d/ e/d/c/d/ AA |[M:3/4] (c/d/)c/B/ AF F2 :|
(:musicend:)
(:music:)
